src/pos-icons/arrow-collapse-right.svg

<svg height="24" viewBox="0 0 24 24" width="24" xmlns="http://www.w3.org/2000/svg"><path d="m12.08 4.08 7.92 7.92-7.92 7.92-1.41-1.42 5.5-5.5h-14.17v-2h14.17l-5.5-5.5zm7.92 7.92v10h2v-20h-2z"/></svg>

<?xml version="1.0" encoding="UTF-8"?><!DOCTYPE svg PUBLIC "-//W3C//DTD SVG 1.1//EN" "http://www.w3.org/Graphics/SVG/1.1/DTD/svg11.dtd"><svg xmlns="http://www.w3.org/2000/svg" xmlns:xlink="http://www.w3.org/1999/xlink" version="1.1" id="mdi-arrow-collapse-right" width="24" height="24" viewBox="0 0 24 24"><path d="M12.08,4.08L20,12L12.08,19.92L10.67,18.5L16.17,13H2V11H16.17L10.67,5.5L12.08,4.08M20,12V22H22V2H20V12Z" /></svg>
